X:1
T:Ford (Mason), LM
T:Ford (Mason), LM
T:Carmina Sacra, by Lowell Mason, 1844
T:Public Domain Courtesy of the Cyber Hymnal™
C:Carmina Sacra, by Lowell Mason, 1844
Z:Public Domain
Z:Courtesy of the Cyber Hymnal™
%%score 1 2 3 4
L:1/8
Q:1/4=107
M:2/4
K:G
V:1 treble 
V:2 treble 
V:3 treble-8 
V:4 bass 
V:1
 B2 Bc | d2 d2 | c2 A2 | G4 | (Ac) Bd | d2 d2 | d2 e2 | d4 | d2 Bd | c2 A2 | (GA) (Bc) | d4 | %12
 d2 dF | (GA) (Bd) | e2 (dc) | B4 |] %16
V:2
 B2 DF | G2 G2 | G2 F2 | G4 | F2 EF | G2 G2 | F2 G2 | F4 | G2 GG | G2 F2 | (ED) (DG) | F4 | G2 FF | %13
 (ED) (DG) | G2 F2 | G4 |] %16
V:3
 d2 GA | B2 d2 | e2 dc | B4 | d2 GA | B2 B2 | (Ad) ^c2 | d4 | B2 dd | e2 d2 | c2 B2 | A4 | B2 dd | %13
 c2 B2 | A2 A2 | G4 |] %16
V:4
 G,2 B,A, | G,2 B,,2 | C,2 D,2 | G,4 | D,2 E,D, | G,2 G,2 | A,2 A,,2 | D,4 | G,2 G,B,, | C,2 D,2 | %10
 (E,F,) G,2 | D,4 | G,2 D,D, | (E,F,) G,2 | C,2 D,2 | [G,,G,]4 |] %16

